X: 35951
T: Sarah Hobbs
R: reel
M: 4/4
K: Dmixolydian
||DEGA BG~G2|AGBG AGEG|DEGA (3Bcd ed|BAAB AB GE|
DEGA BG~G2|AGBG AGEG|DEGA (3Bcd ed|BAAB A2 Bd||
eA~A2 (3Bcd eg|dGGF G2 (3Bcd|eA~A2 (3Bcd eg|dBGB A2 (3Bcd|
eA~A2 (3Bcd eg|dGGF G2 (3Bcd|eg~g2 edea|gedB ABGE||
gedB cdBA|G2 z2||

